src/actions/22/shapes.svg

<svg xmlns="http://www.w3.org/2000/svg" viewBox="0 0 22 22">
  <defs id="defs3051">
    <style type="text/css" id="current-color-scheme">
      .ColorScheme-Text {
        color:#363636;
      }
      </style>
  </defs>
 <path 
     style="fill:currentColor;fill-opacity:1;stroke:none" 
     d="M 6.5 3 C 4.5609917 3 3 4.5609917 3 6.5 C 3 8.4390083 4.5609917 10 6.5 10 C 8.4390083 10 10 8.4390083 10 6.5 C 10 4.5609917 8.4390083 3 6.5 3 z M 12 3 L 12 10 L 19 10 L 19 3 L 12 3 z M 4 12 L 4 19 L 9 19 L 9 12 L 4 12 z M 15 12 L 11 18 L 19 18 L 15 12 z "
	 class="ColorScheme-Text"
     />
</svg>

<svg xmlns="http://www.w3.org/2000/svg" viewBox="0 0 22 22">
    <path d="M6.5 3A3.492 3.492 0 0 0 3 6.5C3 8.439 4.561 10 6.5 10S10 8.439 10 6.5 8.439 3 6.5 3zM12 3v7h7V3h-7zm-8 9v7h5v-7H4zm11 0-4 6h8l-4-6z" style="fill:currentColor;fill-opacity:1;stroke:none;color:#050505;opacity:.7"/>
</svg>
